X: 17716
T: Home In A Box
R: reel
M: 4/4
K: Dmajor
dDDD FAGE|DEFA d3 e|fBBA BcdB|AFED EABc|
dD (3DDD FAGE|DEFA d3 e|fB (3BBA BcdB|Acec dABc:|
d2 (3ddd fafd|cB (3BBB BedB|ca (3aaa agec|Af (3fff fedc|
d2 (3ddd fafd|cB (3BBB BedB|ca (3aaa agec|Acec dABc:|

